X: 1
T: Hommage \`a Edmond Pariso (Pariseau)
C: Marcel Messervier (~1981)
R: reel
Z: transcribed to ABC by Debby Knight
M: C|
L: 1/8
K: A
A ABcd | "A"eAAe A{A}AeA | AeA{A}A "D"f2ed | "A"ceAB cAeA | ceAc "F#7"dedc |
"B(m)7"B3B BABc |1 "E7"B3e efed | "A" c2B2 AcBA | "E7"E3 :|\
[2 "E7"e2d2 c2B2 | "A"Afed "E7"cdBc | "A"A2c2 "A7" B2 A2 |]
|: \
"D"a4 "A/C#"f4 | "Bm"d3A "E7"d2f2 | "A" e3e "E/G#"efec | "F#m"A2c2 B2A2 | "Bm"B2BB BABc |
"E7"e2d2 c2B2 |1 "A"cBAc "E7"ecef | "A"e2c2 "A+/C#"B2A2 :|[2 "A"Afed "E7"c2B2 | "A"A3 |]
